X:4
T: Új korába' repedjen meg a csizmám
M:4/4
L:1/4
K:C
ddAA | e<e d> c | B<A A z |
d<d c B | G<G B<A | A<G G z |
F>G A A | _B A G (F/G/) | A<G F z |
A>^G A<D | E<F G>F | E<D D z |
W: Új korába' repedjen nem a csizmám,
W: Ha én többet járok a lányok után.
W: Eddig is csak azért jártam utána,
W: Hogy a fene meg ne egye bújába.
W:
W: Kis koromban árvaságra jutottam,
W: Nagy koromban katonának rukkoltam,
W: Megtanultam, hogy kell tűrni, szenvedni,
W: De még azt is, hogy kell szívből szeretni,
W: 
W: Titkon nyílik, titkon hervad a rózsa,
W: Bárcsak ne szerettelek volna soha,
W: Jobb lett volna az én árva fejemnek,
W: Hagytam volna békit a szerelemnek

